assets/icons/fullscreen/exit.svg

<?xml version="1.0" encoding="UTF-8" standalone="no"?>
<svg viewBox="0 0 24 24" height="24" width="24" version="1.1" id="svg8" sodipodi:docname="restore.svg" inkscape:version="1.1 (ce6663b3b7, 2021-05-25)"
   xmlns:inkscape="http://www.inkscape.org/namespaces/inkscape"
   xmlns:sodipodi="http://sodipodi.sourceforge.net/DTD/sodipodi-0.dtd"
   xmlns="http://www.w3.org/2000/svg"
   xmlns:svg="http://www.w3.org/2000/svg"
   xmlns:rdf="http://www.w3.org/1999/02/22-rdf-syntax-ns#"
   xmlns:cc="http://creativecommons.org/ns#"
   xmlns:dc="http://purl.org/dc/elements/1.1/">
   <path id="path1049" style="color:#000000;fill:#808080;-inkscape-stroke:none;fill-opacity:1" d="M 20.146484 3.1464844 L 14 9.2929688 L 14 5.5 L 14 5 L 13 5 L 13 5.5 L 13 11 L 18.5 11 L 19 11 L 19 10 L 18.5 10 L 14.707031 10 L 20.853516 3.8535156 L 20.146484 3.1464844 z M 5 13 L 5 14 L 5.5 14 L 9.2929688 14 L 3.1464844 20.146484 L 3.8535156 20.853516 L 10 14.707031 L 10 18.5 L 10 19 L 11 19 L 11 18.5 L 11 13 L 5.5 13 L 5 13 z " />
   <metadata id="metadata14">
      <rdf:RDF>
         <cc:Work rdf:about="">
            <dc:format>image/svg+xml</dc:format>
            <dc:type rdf:resource="http://purl.org/dc/dcmitype/StillImage" />
         </cc:Work>
      </rdf:RDF>
   </metadata>
   <defs id="defs12" />
   <sodipodi:namedview pagecolor="#ffffff" bordercolor="#666666" borderopacity="1" objecttolerance="10" gridtolerance="10" guidetolerance="10" inkscape:pageopacity="0" inkscape:pageshadow="2" inkscape:window-width="1920" inkscape:window-height="1016" id="namedview10" showgrid="true" inkscape:zoom="26.78125" inkscape:cx="26.604434" inkscape:cy="10.324387" inkscape:window-x="0" inkscape:window-y="27" inkscape:window-maximized="1" inkscape:current-layer="svg8" inkscape:document-rotation="0" inkscape:pagecheckerboard="0">
      <inkscape:grid type="xygrid" id="grid851" dotted="false" spacingx="1" spacingy="1" empspacing="5" />
      <inkscape:grid type="xygrid" id="grid877" dotted="true" spacingx="0.5" spacingy="0.5" empspacing="10" />
   </sodipodi:namedview>
</svg>

<svg height="24" width="24" xmlns="http://www.w3.org/2000/svg"><path style="color:#000;fill:gray;-inkscape-stroke:none;fill-opacity:1" d="M20.146 3.146 14 9.293V5h-1v6h6v-1h-4.293l6.147-6.146-.708-.708zM5 13v1h4.293l-6.147 6.146.708.708L10 14.707V19h1v-6H5z"/></svg>
